X: 5821
T: Call His Mother
R: reel
M: 4/4
K: Fmajor
F2cF dFcF|Addc cAGA|F2cF dFcF|cAGF ECEG|
F2cF dFcF|Addc cAGc|Accc Addd|AcGF ECEG:|
~f3e ~d3e|~f2fg afge|~f2fe fdde|fdec AFD2|
fage ~d3e|~fefg afge|fagf egfe|dfed cAGA:|

